X:72
T:Folly Dance. THO5.072, The
M:6/8
L:1/8
B:Thompson's Complete Collection of 200 Favourite Dances Vol.5
F:https://www.libraryofdance.org/manuals/1780c-Thompson-Compleat-5.pdf
Z:vmp. Peter Dunk 2024
Q:3/8=100
K:A
c|ABA ecA|aec ecA|dfd cec|dBG dBG|
ABA ecA|aec ecA|dfd Bbg|aec A2:|
|:(f/g/)|aed cea|dfa cea|ecA fdc|dBB B2B|
cAc dBd|ece fdf|geg (a/g/f/g/)a|ecA A2:|
W:
W:Right hands across half round, left hands back again ./.
W:Lead down the middle, up again and cast off ./:
W:Hands six quite round :/.
W:Allemand with your Partner :/:

